img/footer/twitter.svg

<svg width="24" height="19" viewBox="0 0 24 19" fill="none" xmlns="http://www.w3.org/2000/svg">
<path d="M22.8565 2.34646C22.5043 2.50543 22.1422 2.63962 21.7723 2.74859C22.2103 2.24436 22.5442 1.65109 22.7481 1.0019C22.7938 0.856386 22.7464 0.697105 22.6289 0.601912C22.5115 0.506673 22.3485 0.495264 22.2193 0.573211C21.4335 1.04753 20.5858 1.38842 19.697 1.58772C18.8016 0.697239 17.5856 0.19043 16.3284 0.19043C13.6747 0.19043 11.5158 2.38782 11.5158 5.08873C11.5158 5.30144 11.529 5.513 11.5552 5.72161C8.26226 5.42734 5.20086 3.77994 3.09863 1.1552C3.02371 1.06166 2.9083 1.01121 2.79012 1.02088C2.6719 1.03028 2.56563 1.09816 2.50591 1.20249C2.07952 1.94715 1.85411 2.79886 1.85411 3.66545C1.85411 4.84575 2.26811 5.96557 2.99946 6.84063C2.77707 6.76224 2.56129 6.66428 2.35533 6.54792C2.24477 6.48526 2.10982 6.48624 1.99996 6.55033C1.89006 6.61446 1.82114 6.73234 1.81821 6.86122C1.81768 6.88293 1.81768 6.90463 1.81768 6.92665C1.81768 8.6884 2.74927 10.2746 4.17357 11.1391C4.05119 11.1266 3.92894 11.1086 3.80743 11.085C3.68216 11.0606 3.55339 11.1053 3.46893 11.2025C3.38433 11.2997 3.35631 11.4351 3.39532 11.5588C3.9225 13.2341 5.27981 14.4663 6.92067 14.842C5.55973 15.7096 4.00342 16.1641 2.36965 16.1641C2.02873 16.1641 1.68589 16.1437 1.35036 16.1033C1.18367 16.0831 1.02429 16.1833 0.9675 16.3446C0.91071 16.5061 0.970915 16.686 1.11269 16.7785C3.21155 18.1483 5.63841 18.8723 8.13082 18.8723C13.0306 18.8723 16.0957 16.5205 17.8042 14.5477C19.9347 12.0877 21.1565 8.83155 21.1565 5.6143C21.1565 5.47989 21.1545 5.34418 21.1504 5.20888C21.991 4.56431 22.7146 3.78422 23.3035 2.88763C23.3929 2.75148 23.3833 2.57148 23.2796 2.44616C23.1762 2.32062 23.0037 2.28006 22.8565 2.34646Z" fill="white"/>
</svg>

<svg width="24" height="19" fill="none" xmlns="http://www.w3.org/2000/svg"><path d="M22.857 2.346a8.415 8.415 0 01-1.085.403 4.903 4.903 0 00.976-1.747.372.372 0 00-.12-.4.356.356 0 00-.409-.029 8.447 8.447 0 01-2.522 1.015A4.793 4.793 0 0016.328.19c-2.653 0-4.812 2.198-4.812 4.899 0 .212.013.424.04.633C8.261 5.427 5.2 3.78 3.098 1.155a.358.358 0 00-.593.047 4.963 4.963 0 00-.652 2.463c0 1.18.414 2.3 1.145 3.176a4.042 4.042 0 01-.644-.293A.356.356 0 002 6.55a.37.37 0 00-.182.311v.066c0 1.761.931 3.348 2.356 4.212a4.113 4.113 0 01-.367-.054.358.358 0 00-.338.117.373.373 0 00-.074.357 4.844 4.844 0 003.526 3.283 8.404 8.404 0 01-4.551 1.322c-.341 0-.684-.02-1.02-.06a.362.362 0 00-.383.24.371.371 0 00.146.434 12.813 12.813 0 007.018 2.094c4.9 0 7.965-2.352 9.673-4.324 2.13-2.46 3.353-5.716 3.353-8.934 0-.134-.003-.27-.007-.405a9.454 9.454 0 002.154-2.321.373.373 0 00-.024-.442.357.357 0 00-.424-.1z" fill="#fff"/></svg>
